assets/img/braze_icons/arrow-circle-broken-up-left.svg

<svg fill="none" height="24" viewBox="0 0 24 24" width="24" xmlns="http://www.w3.org/2000/svg"><path d="m21.4641 17.6114c-.263.4429-.3945.6644-.6417.7959-.1974.1049-.4895.1415-.7066.0886-.2721-.0664-.4814-.2758-.9001-.6944l-7.6299-7.6299h3.2426c.5523 0 1-.44774 1-1.00003 0-.55228-.4477-1-1-1h-5.65683c-.55228 0-1 .44772-1 1v5.65683c0 .5523.44772 1 1 1 .55229 0 1.00003-.4477 1.00003-1v-3.2426l7.6299 7.6299c.4186.4187.628.628.6944.9001.0529.2171.0163.5092-.0886.7066-.1315.2472-.353.3787-.7959.6417-4.2211 2.5069-9.75871 1.9449-13.38958-1.6859-4.2957615-4.2958-4.2957617-11.26061.00001-15.55637 4.29576-4.2957717 11.26057-4.2957715 15.55637-.00001 3.6308 3.63087 4.1928 9.16848 1.6859 13.38958z" fill="#801ed7"/></svg>

<svg width="24" height="24" viewBox="0 0 24 24" fill="none" xmlns="http://www.w3.org/2000/svg">
<path d="M21.4641 17.6114C21.2011 18.0543 21.0696 18.2758 20.8224 18.4073C20.625 18.5122 20.3329 18.5488 20.1158 18.4959C19.8437 18.4295 19.6344 18.2201 19.2157 17.8015L11.5858 10.1716H14.8284C15.3807 10.1716 15.8284 9.72386 15.8284 9.17157C15.8284 8.61929 15.3807 8.17157 14.8284 8.17157L9.17157 8.17157C8.61929 8.17157 8.17157 8.61929 8.17157 9.17157L8.17157 14.8284C8.17157 15.3807 8.61929 15.8284 9.17157 15.8284C9.72386 15.8284 10.1716 15.3807 10.1716 14.8284L10.1716 11.5858L17.8015 19.2157C18.2201 19.6344 18.4295 19.8437 18.4959 20.1158C18.5488 20.3329 18.5122 20.625 18.4073 20.8224C18.2758 21.0696 18.0543 21.2011 17.6114 21.4641C13.3903 23.971 7.85269 23.409 4.22182 19.7782C-0.0739415 15.4824 -0.0739417 8.51759 4.22183 4.22183C8.51759 -0.0739417 15.4824 -0.0739415 19.7782 4.22182C23.409 7.85269 23.971 13.3903 21.4641 17.6114Z" fill="#801ED7"/>
</svg>
